X: 46
T: A Late Night Stroll through the Forest
C: Armand Aromin
H: //05
M: 4/4
L: 1/8
R: Reel
K: Gmin
G,3 B, DF D2 | G,3 B, DF G2 | G,2 G,B, DF D2 | G,B,G,B, DF G2 :|
BGBG BGBG | cGcG BGBG | A^FA^F A^FA^F | B^FB^F A^FA^F |
BGBG BGBG | cGcG BGBG | A^FA^F A^FA^F | BGBG cFcF ||
dGdG dGdG | eGeG dGdG | ^c^F^c^F ^c^F^c^F | d^Fd^F ^c^F^c^F :|
d2 fg a2 ba | gafg d4 | e2 fg d2
